src/images/footer-logo.svg

<svg width="116" height="48" viewBox="0 0 116 48" fill="none" xmlns="http://www.w3.org/2000/svg">
<mask id="mask0_90_462" style="mask-type:alpha" maskUnits="userSpaceOnUse" x="-4" y="-6" width="120" height="61">
<rect x="-3.31055" y="-5.79321" width="119.172" height="60.4138" fill="#D9D9D9"/>
</mask>
<g mask="url(#mask0_90_462)">
<path d="M121.426 0L121.655 5.18146H9.09357L0 15.1906V0H121.426Z" fill="#B3B3B3"/>
<path d="M131.586 47.7567L128.309 43.8446H44.2505L15.2427 11.9131L0 28.6956V47.7671H131.586V47.7567ZM12.756 33.5649H6.22191V27.0309H12.756V33.5649ZM12.756 43.8446H6.22191V37.3106H12.756V43.8446ZM23.6183 33.5649H17.0843V27.0309H23.6183V33.5649ZM23.6183 43.8446H17.0843V37.3106H23.6183V43.8446Z" fill="#B3B3B3"/>
<path d="M40.0079 31.3848L40.0076 24.101L23.0103 4.37083L16.5516 4.44292L40.0079 31.3848Z" fill="#B3B3B3"/>
<path d="M46.5119 37.4139C46.2434 37.4139 46.0238 37.3285 45.8529 37.1576C45.6821 36.9868 45.5967 36.7672 45.5967 36.4987V12.7027C45.5967 12.4342 45.6821 12.2146 45.8529 12.0437C46.0238 11.8729 46.2434 11.7875 46.5119 11.7875H57.6777C59.7766 11.7875 61.4973 12.0804 62.8396 12.6661C64.1819 13.2518 65.1704 14.0939 65.805 15.1921C66.4639 16.266 66.7934 17.5473 66.7934 19.0361C66.7934 19.9147 66.6226 20.6957 66.2809 21.3791C65.9636 22.0381 65.5609 22.5872 65.0728 23.0265C64.6091 23.4658 64.1697 23.7831 63.7548 23.9783C64.6823 24.4177 65.4999 25.1376 66.2077 26.1383C66.9398 27.1389 67.3059 28.3104 67.3059 29.6528C67.3059 31.2636 66.9398 32.6547 66.2077 33.8262C65.4999 34.9733 64.4504 35.8641 63.0593 36.4987C61.6925 37.1088 60.0085 37.4139 58.0072 37.4139H46.5119ZM52.1497 32.6547H57.275C58.3245 32.6547 59.1177 32.3496 59.6546 31.7395C60.1915 31.1293 60.46 30.4338 60.46 29.6528C60.46 28.7986 60.1793 28.0786 59.618 27.4928C59.0811 26.9071 58.3001 26.6142 57.275 26.6142H52.1497V32.6547ZM52.1497 21.9648H56.9455C57.9462 21.9648 58.6906 21.7086 59.1787 21.196C59.6912 20.6835 59.9475 20.0245 59.9475 19.2191C59.9475 18.4381 59.6912 17.8036 59.1787 17.3155C58.6906 16.8029 57.9462 16.5467 56.9455 16.5467H52.1497V21.9648Z" fill="#EF7F1A"/>
<path d="M77.9263 37.4139C77.6579 37.4139 77.4382 37.3285 77.2674 37.1576C77.0965 36.9868 77.0111 36.7672 77.0111 36.4987V17.5351H70.4947C70.2262 17.5351 70.0065 17.4497 69.8357 17.2789C69.6648 17.0836 69.5794 16.864 69.5794 16.6199V12.7027C69.5794 12.4342 69.6648 12.2146 69.8357 12.0437C70.0065 11.8729 70.2262 11.7875 70.4947 11.7875H90.1904C90.4589 11.7875 90.6785 11.8729 90.8494 12.0437C91.0202 12.2146 91.1056 12.4342 91.1056 12.7027V16.6199C91.1056 16.864 91.0202 17.0836 90.8494 17.2789C90.6785 17.4497 90.4589 17.5351 90.1904 17.5351H83.674V36.4987C83.674 36.7672 83.5885 36.9868 83.4177 37.1576C83.2469 37.3285 83.0272 37.4139 82.7587 37.4139H77.9263Z" fill="#EF7F1A"/>
<path d="M104.94 37.78C102.621 37.78 100.632 37.4017 98.9723 36.6451C97.3371 35.8885 96.0558 34.7781 95.1283 33.3137C94.2253 31.8493 93.725 30.0311 93.6274 27.8589C93.603 26.8583 93.5908 25.7844 93.5908 24.6373C93.5908 23.4902 93.603 22.3919 93.6274 21.3425C93.725 19.2191 94.2375 17.4253 95.165 15.9609C96.0924 14.4722 97.3859 13.3495 99.0455 12.5929C100.705 11.8119 102.67 11.4214 104.94 11.4214C106.55 11.4214 108.039 11.6288 109.406 12.0437C110.773 12.4342 111.969 13.02 112.994 13.801C114.019 14.5576 114.812 15.485 115.373 16.5833C115.959 17.6572 116.264 18.8775 116.288 20.2442C116.313 20.4639 116.24 20.6469 116.069 20.7933C115.922 20.9398 115.739 21.013 115.52 21.013H110.577C110.26 21.013 110.016 20.952 109.845 20.83C109.674 20.6835 109.528 20.4272 109.406 20.0612C109.064 18.7676 108.503 17.889 107.722 17.4253C106.965 16.9372 106.026 16.6931 104.903 16.6931C103.561 16.6931 102.499 17.0714 101.718 17.828C100.937 18.5602 100.51 19.7927 100.437 21.5255C100.363 23.5268 100.363 25.5769 100.437 27.6759C100.51 29.4087 100.937 30.6534 101.718 31.41C102.499 32.1422 103.561 32.5083 104.903 32.5083C106.026 32.5083 106.978 32.2642 107.759 31.7761C108.54 31.288 109.089 30.4094 109.406 29.1402C109.504 28.7741 109.638 28.5301 109.809 28.4081C110.004 28.2616 110.26 28.1884 110.577 28.1884H115.52C115.739 28.1884 115.922 28.2616 116.069 28.4081C116.24 28.5545 116.313 28.7375 116.288 28.9572C116.264 30.3239 115.959 31.5564 115.373 32.6547C114.812 33.7286 114.019 34.656 112.994 35.437C111.969 36.1936 110.773 36.7794 109.406 37.1943C108.039 37.5848 106.55 37.78 104.94 37.78Z" fill="#EF7F1A"/>
</g>
</svg>

<svg width="116" height="48" fill="none" xmlns="http://www.w3.org/2000/svg"><mask id="a" style="mask-type:alpha" maskUnits="userSpaceOnUse" x="-4" y="-6" width="120" height="61"><path fill="#D9D9D9" d="M-3.311-5.793h119.172v60.414H-3.311z"/></mask><g mask="url(#a)"><path d="m121.426 0 .229 5.181H9.094L0 15.191V0h121.426Z" fill="#B3B3B3"/><path d="m131.586 47.757-3.277-3.912H44.251L15.243 11.913 0 28.696v19.071h131.586v-.01ZM12.756 33.565H6.222V27.03h6.534v6.534Zm0 10.28H6.222V37.31h6.534v6.534Zm10.862-10.28h-6.534V27.03h6.534v6.534Zm0 10.28h-6.534V37.31h6.534v6.534Z" fill="#B3B3B3"/><path d="M40.008 31.385V24.1L23.01 4.371l-6.458.072 23.456 26.942Z" fill="#B3B3B3"/><path d="M46.512 37.414a.892.892 0 0 1-.66-.256.892.892 0 0 1-.255-.66V12.704c0-.269.085-.488.256-.66.17-.17.39-.255.659-.255h11.166c2.099 0 3.82.292 5.162.878 1.342.586 2.33 1.428 2.965 2.526.659 1.074.988 2.355.988 3.844 0 .879-.17 1.66-.512 2.343a5.244 5.244 0 0 1-1.208 1.647c-.464.44-.903.757-1.318.952.927.44 1.745 1.16 2.453 2.16.732 1 1.098 2.172 1.098 3.515 0 1.61-.366 3.002-1.098 4.173-.708 1.147-1.758 2.038-3.149 2.673-1.366.61-3.05.915-5.052.915H46.512Zm5.638-4.76h5.125c1.05 0 1.843-.304 2.38-.915.536-.61.805-1.305.805-2.086 0-.854-.28-1.574-.842-2.16-.537-.586-1.318-.879-2.343-.879H52.15v6.04Zm0-10.69h4.796c1 0 1.745-.255 2.233-.768.512-.513.768-1.172.768-1.977 0-.78-.256-1.415-.768-1.904-.488-.512-1.233-.768-2.233-.768H52.15v5.418ZM77.926 37.414a.892.892 0 0 1-.659-.256.892.892 0 0 1-.256-.66V17.536h-6.516a.892.892 0 0 1-.66-.256.975.975 0 0 1-.256-.66v-3.916c0-.269.086-.488.257-.66.17-.17.39-.255.659-.255H90.19c.269 0 .489.085.66.256.17.17.256.39.256.659v3.917a.975.975 0 0 1-.257.659.892.892 0 0 1-.659.256h-6.516V36.5a.892.892 0 0 1-.256.659.892.892 0 0 1-.66.256h-4.832ZM104.94 37.78c-2.319 0-4.308-.378-5.968-1.135-1.635-.757-2.916-1.867-3.844-3.331-.903-1.465-1.403-3.283-1.5-5.455a141.948 141.948 0 0 1 0-6.516c.097-2.124.61-3.918 1.537-5.382.927-1.489 2.22-2.611 3.88-3.368 1.66-.781 3.625-1.172 5.895-1.172 1.61 0 3.099.208 4.466.623 1.367.39 2.563.976 3.588 1.757a7.88 7.88 0 0 1 2.379 2.782c.586 1.074.891 2.295.915 3.661a.596.596 0 0 1-.219.55.746.746 0 0 1-.549.219h-4.943c-.317 0-.561-.061-.732-.183-.171-.146-.317-.403-.439-.769-.342-1.293-.903-2.172-1.684-2.636-.757-.488-1.696-.732-2.819-.732-1.342 0-2.404.378-3.185 1.135-.781.732-1.208 1.965-1.281 3.698a85.213 85.213 0 0 0 0 6.15c.073 1.733.5 2.977 1.281 3.734.781.732 1.843 1.098 3.185 1.098 1.123 0 2.075-.244 2.856-.732.781-.488 1.33-1.367 1.647-2.636.098-.366.232-.61.403-.732.195-.146.451-.22.768-.22h4.943c.219 0 .402.074.549.22.171.146.244.33.219.55-.024 1.366-.329 2.598-.915 3.697-.561 1.074-1.354 2.001-2.379 2.782-1.025.757-2.221 1.342-3.588 1.757-1.367.39-2.856.586-4.466.586Z" fill="#EF7F1A"/></g></svg>
